Origami/22x22/apps/com.github.artemanufrij.playmyvideos.svg

<svg width="22" height="22" version="1" xmlns="http://www.w3.org/2000/svg">
 <rect transform="matrix(0,-1,-1,0,0,0)" x="-19.5" y="-21" width="16" height="20" rx="1" ry="1" style="opacity:.2"/>
 <rect transform="matrix(0,-1,-1,0,0,0)" x="-19" y="-21" width="16" height="20" rx="1" ry="1" style="fill:#4f4f4f"/>
 <rect x="2" y="6" width="2" height="2" rx=".45" ry=".436" style="opacity:.4"/>
 <rect x="2" y="15" width="2" height="2" rx=".45" ry=".436" style="opacity:.4"/>
 <rect x="2" y="12" width="2" height="2" rx=".45" ry=".436" style="opacity:.4"/>
 <rect x="2" y="9" width="2" height="2" rx=".45" ry=".436" style="opacity:.4"/>
 <rect x="18" y="6" width="2" height="2" rx=".45" ry=".436" style="opacity:.4"/>
 <rect x="18" y="15" width="2" height="2" rx=".45" ry=".436" style="opacity:.4"/>
 <rect x="18" y="12" width="2" height="2" rx=".45" ry=".436" style="opacity:.4"/>
 <rect x="18" y="9" width="2" height="2" rx=".45" ry=".436" style="opacity:.4"/>
 <path d="m8.3015875 7.5000679c-0.2723085-6e-3 -0.319148 0.3879585-0.29664 0.6723574 2e-3 2.6617077-0.0035 5.3237767 0.0025 7.9853667 0.023945 0.318239 0.3278095 0.44539 0.5005715 0.248033 1.846397-1.362715 4.532106-2.716069 6.375748-4.084663 0.201172-0.188376 0.124124-0.627058-0.100417-0.718258-1.846448-1.357313-4.525294-2.722068-6.373244-4.0747623-0.034515-0.0184781-0.0716125-0.0280181-0.108729-0.02808z" style="opacity:.2"/>
 <path d="m8.3015875 7.0000694c-0.2723085-6e-3 -0.319148 0.3879585-0.29664 0.6723574 2e-3 2.6617082-0.0035 5.3237772 0.0025 7.9853672 0.023945 0.318239 0.3278095 0.44539 0.5005715 0.248033 1.846397-1.362715 4.532106-2.716069 6.375748-4.084663 0.201172-0.188376 0.124124-0.627058-0.100417-0.718258-1.846448-1.357314-4.525294-2.7220685-6.373244-4.0747628-0.034515-0.0184781-0.0716125-0.0280181-0.108729-0.02808z" style="fill:#ffffff"/>
 <path d="m2 3c-0.554 0-1 0.446-1 1v0.5c0-0.554 0.446-1 1-1h18c0.554 0 1 0.446 1 1v-0.5c0-0.554-0.446-1-1-1h-18z" style="fill:#ffffff;opacity:.1"/>
</svg>

<svg xmlns="http://www.w3.org/2000/svg" width="22" height="22" version="1">
 <rect style="opacity:0.2" width="16" height="20" x="-19.5" y="-21" rx="1" ry="1" transform="matrix(0,-1,-1,0,0,0)"/>
 <rect width="16" height="20" x="-19" y="-21" rx="1" ry="1" transform="matrix(0,-1,-1,0,0,0)" style="fill:#4f4f4f"/>
 <rect style="opacity:0.4" width="2" height="2" x="2" y="6" rx=".45" ry=".436"/>
 <rect width="2" height="2" x="2" y="15" rx=".45" ry=".436" style="opacity:0.4"/>
 <rect style="opacity:0.4" width="2" height="2" x="2" y="12" rx=".45" ry=".436"/>
 <rect width="2" height="2" x="2" y="9" rx=".45" ry=".436" style="opacity:0.4"/>
 <rect width="2" height="2" x="18" y="6" rx=".45" ry=".436" style="opacity:0.4"/>
 <rect style="opacity:0.4" width="2" height="2" x="18" y="15" rx=".45" ry=".436"/>
 <rect width="2" height="2" x="18" y="12" rx=".45" ry=".436" style="opacity:0.4"/>
 <rect style="opacity:0.4" width="2" height="2" x="18" y="9" rx=".45" ry=".436"/>
 <path style="opacity:0.2" d="m 8.3015875,7.5000679 c -0.2723085,-0.006 -0.319148,0.3879585 -0.29664,0.6723574 0.002,2.6617077 -0.0035,5.3237767 0.0025,7.9853667 0.023945,0.318239 0.3278095,0.44539 0.5005715,0.248033 1.846397,-1.362715 4.532106,-2.716069 6.375748,-4.084663 0.201172,-0.188376 0.124124,-0.627058 -0.100417,-0.718258 C 12.936902,10.245591 10.258056,8.880836 8.410106,7.5281417 8.375591,7.5096636 8.3384935,7.5001236 8.301377,7.5000617 Z"/>
 <path d="m 8.3015875,7.0000694 c -0.2723085,-0.006 -0.319148,0.3879585 -0.29664,0.6723574 0.002,2.6617082 -0.0035,5.3237772 0.0025,7.9853672 0.023945,0.318239 0.3278095,0.44539 0.5005715,0.248033 1.846397,-1.362715 4.532106,-2.716069 6.375748,-4.084663 0.201172,-0.188376 0.124124,-0.627058 -0.100417,-0.718258 C 12.936902,9.745592 10.258056,8.3808375 8.410106,7.0281432 8.375591,7.0096651 8.3384935,7.0001251 8.301377,7.0000632 Z" style="fill:#ffffff"/>
 <path style="opacity:0.1;fill:#ffffff" d="M 2,3 C 1.446,3 1,3.446 1,4 l 0,0.5 c 0,-0.554 0.446,-1 1,-1 l 18,0 c 0.554,0 1,0.446 1,1 L 21,4 C 21,3.446 20.554,3 20,3 L 2,3 Z"/>
</svg>
